src/status/22/audio-input-microphone-medium-panel.svg

<svg width="22" height="22" version="1.1" viewBox="0 0 22 22" xmlns="http://www.w3.org/2000/svg" xmlns:xlink="http://www.w3.org/1999/xlink">
 <defs>
  <filter id="alpha" x="0%" y="0%" width="100%" height="100%">
   <feColorMatrix in="SourceGraphic" values="0 0 0 0 1 0 0 0 0 1 0 0 0 0 1 0 0 0 1 0"/>
  </filter>
  <mask id="mask0">
   <g filter="url(#alpha)">
    <rect width="22" height="22" style="fill-opacity:.4;fill:rgb(0%,0%,0%)"/>
   </g>
  </mask>
  <clipPath id="clip1">
   <rect width="22" height="22"/>
  </clipPath>
  <g id="surface5" clip-path="url(#clip1)">
   <path d="m21 4.25c0 1.246094-0.992188 2.25-2.222656 2.25-1.226563 0-2.222656-1.003906-2.222656-2.25 0-1.242188 1-2.253906 2.222656-2.253906 1.230468 0 2.222656 1.011718 2.222656 2.253906z" style="fill:rgb(18.039216%,20.392157%,25.098041%)"/>
  </g>
 </defs>
 <g id="surface1">
  <path d="m7.664062 1.996094c-1.835937 0-3.328124 1.515625-3.328124 3.378906v5.636719c0 1.863281 1.492187 3.371093 3.328124 3.371093 1.84375 0 3.335938-1.507812 3.335938-3.371093v-5.636719c0-1.863281-1.492188-3.378906-3.335938-3.378906z" style="fill:rgb(18.039216%,20.392157%,25.098041%)"/>
  <path d="m1 11c0 3.347656 2.398438 6.113281 5.554688 6.644531v1.230469h-1.113282v1.128906h4.441406v-1.128906h-1.113281v-1.230469c3.160157-0.53125 5.554688-3.296875 5.554688-6.644531h-2.222657c0 2.488281-1.992187 4.5-4.445312 4.5s-4.441406-2.015625-4.441406-4.5z" style="fill:rgb(18.039216%,20.392157%,25.098041%)"/>
  <use mask="url(#mask0)" xlink:href="#surface5"/>
  <path d="m21 11c0 1.242188-0.992188 2.25-2.222656 2.25-1.226563 0-2.222656-1.007812-2.222656-2.25s1-2.25 2.222656-2.25c1.230468 0 2.222656 1.007812 2.222656 2.25z" style="fill:rgb(18.039216%,20.392157%,25.098041%)"/>
  <path d="m21 17.75c0 1.242188-0.992188 2.253906-2.222656 2.253906-1.226563 0-2.222656-1.011718-2.222656-2.253906 0-1.246094 1-2.25 2.222656-2.25 1.230468 0 2.222656 1.003906 2.222656 2.25z" style="fill:rgb(18.039216%,20.392157%,25.098041%)"/>
 </g>
</svg>

<svg xmlns="http://www.w3.org/2000/svg" xmlns:xlink="http://www.w3.org/1999/xlink" width="22" height="22" viewBox="0 0 22 22" version="1.1">
<defs>
<filter id="alpha" filterUnits="objectBoundingBox" x="0%" y="0%" width="100%" height="100%">
  <feColorMatrix type="matrix" in="SourceGraphic" values="0 0 0 0 1 0 0 0 0 1 0 0 0 0 1 0 0 0 1 0"/>
</filter>
<mask id="mask0">
  <g filter="url(#alpha)">
<rect x="0" y="0" width="22" height="22" style="fill:rgb(0%,0%,0%);fill-opacity:0.4;stroke:none;"/>
  </g>
</mask>
<clipPath id="clip1">
  <rect x="0" y="0" width="22" height="22"/>
</clipPath>
<g id="surface5" clip-path="url(#clip1)">
<path style=" stroke:none;fill-rule:nonzero;fill:rgb(18.039216%,20.392157%,25.098041%);fill-opacity:1;" d="M 21 4.25 C 21 5.496094 20.007812 6.5 18.777344 6.5 C 17.550781 6.5 16.554688 5.496094 16.554688 4.25 C 16.554688 3.007812 17.554688 1.996094 18.777344 1.996094 C 20.007812 1.996094 21 3.007812 21 4.25 Z M 21 4.25 "/>
</g>
</defs>
<g id="surface1">
<path style=" stroke:none;fill-rule:nonzero;fill:rgb(18.039216%,20.392157%,25.098041%);fill-opacity:1;" d="M 7.664062 1.996094 C 5.828125 1.996094 4.335938 3.511719 4.335938 5.375 L 4.335938 11.011719 C 4.335938 12.875 5.828125 14.382812 7.664062 14.382812 C 9.507812 14.382812 11 12.875 11 11.011719 L 11 5.375 C 11 3.511719 9.507812 1.996094 7.664062 1.996094 Z M 7.664062 1.996094 "/>
<path style=" stroke:none;fill-rule:nonzero;fill:rgb(18.039216%,20.392157%,25.098041%);fill-opacity:1;" d="M 1 11 C 1 14.347656 3.398438 17.113281 6.554688 17.644531 L 6.554688 18.875 L 5.441406 18.875 L 5.441406 20.003906 L 9.882812 20.003906 L 9.882812 18.875 L 8.769531 18.875 L 8.769531 17.644531 C 11.929688 17.113281 14.324219 14.347656 14.324219 11 L 12.101562 11 C 12.101562 13.488281 10.109375 15.5 7.65625 15.5 C 5.203125 15.5 3.214844 13.484375 3.214844 11 Z M 1 11 "/>
<use xlink:href="#surface5" mask="url(#mask0)"/>
<path style=" stroke:none;fill-rule:nonzero;fill:rgb(18.039216%,20.392157%,25.098041%);fill-opacity:1;" d="M 21 11 C 21 12.242188 20.007812 13.25 18.777344 13.25 C 17.550781 13.25 16.554688 12.242188 16.554688 11 C 16.554688 9.757812 17.554688 8.75 18.777344 8.75 C 20.007812 8.75 21 9.757812 21 11 Z M 21 11 "/>
<path style=" stroke:none;fill-rule:nonzero;fill:rgb(18.039216%,20.392157%,25.098041%);fill-opacity:1;" d="M 21 17.75 C 21 18.992188 20.007812 20.003906 18.777344 20.003906 C 17.550781 20.003906 16.554688 18.992188 16.554688 17.75 C 16.554688 16.503906 17.554688 15.5 18.777344 15.5 C 20.007812 15.5 21 16.503906 21 17.75 Z M 21 17.75 "/>
</g>
</svg>
